X: 1
T:the Anon
M:2/4
L:1/8
O:France
R:Bourr\'ee
K:D
A>Bcd| A>Bcd| A>GFE| F2E2| A>Bcd| A>Bcd| A>GFE| D4 ::
A3F| D4| B3G| E4 | A3F| D3B| A>GFE|1 F2D2 :|2 D4 |]
